X: 73
T: POLKA: Ballydesmond No. 3
C: C: Trad.; S: Various
C: Set Leaders: Andrey, Olya, Vova, Anton
Z: Anton Zille ed., Oleg Naumov arr.; Mix O'Lydian at The Session
N: https://thesession.org/members/26966/sets/96720
R: Polka
M: 2/4
L: 1/8
Q: 1/4=140
K: Gmaj
|:"G"G>A Bd|"G"gf ed|"C"eA AB|"D"cd/c/ BA|
"G"G>A Bd|"G"gf ed|"C"ea "D"ef|"G"g2 g2:||
|:"Am"ae ae|"Am"ae e>f|"G"gd gd|"G"gd d2|
"Am"ae ae|"Am"ae e>f|"Em (C)"ge dB|1 "Am"A2 A2:|2 "D"AB/c/ BA||

